dist/img/about-training/icon-3.svg

<svg width="43" height="43" viewBox="0 0 43 43" fill="none" xmlns="http://www.w3.org/2000/svg">
<path d="M17.3927 0.00254682C13.0147 -0.0727179 8.60847 1.52008 5.21489 4.79895C-1.57232 11.3567 -1.75884 22.1957 4.79897 28.9829C11.3567 35.7701 22.1957 35.9566 28.9829 29.3988C35.7701 22.8411 35.9566 12.0021 29.3988 5.21491C26.1199 1.8213 21.7708 0.0778115 17.3927 0.00254682ZM17.3473 2.65127C21.0469 2.715 24.7216 4.18817 27.4924 7.05595C33.0341 12.7915 32.8816 21.955 27.1461 27.4967C21.4105 33.0383 12.2427 32.8816 6.70109 27.1461C1.15941 21.4105 1.32044 12.2456 7.05597 6.70395C9.92373 3.93314 13.6477 2.58765 17.3473 2.65127ZM17.3217 4.09631C13.9972 4.03917 10.6519 5.25222 8.06663 7.75013C2.89605 12.746 2.75 20.9648 7.74582 26.1354C12.7416 31.306 20.9648 31.4478 26.1354 26.452C31.3059 21.4562 31.4435 13.2373 26.4476 8.06667C23.9497 5.48138 20.6462 4.15347 17.3217 4.09631ZM17.1443 8.5947C17.8356 8.60844 18.5222 8.88295 19.0365 9.41522C19.8248 10.231 19.9874 11.4264 19.5432 12.4046L22.6193 15.2422C23.3164 14.814 24.1651 14.7426 24.9203 15.0051L26.2134 13.0974L27.4157 13.9135L26.1112 15.8427C26.9788 16.9129 26.9133 18.4999 25.9054 19.4737C24.8408 20.5024 23.1226 20.4687 22.0941 19.4042C21.279 18.5607 21.1391 17.3135 21.6412 16.3182L18.6021 13.5148C18.0544 13.8833 17.4032 14.022 16.771 13.9463L14.6942 18.6888C14.7785 18.7569 14.8656 18.8193 14.9427 18.899C15.9711 19.9635 15.9419 21.686 14.8773 22.7145C13.8128 23.7432 12.0945 23.7095 11.066 22.645C10.4859 22.0447 10.2547 21.239 10.3435 20.4647L7.62371 19.2567L8.21422 17.9323L10.8928 19.1204C10.9685 19.0238 11.0406 18.9243 11.1313 18.8365C11.7431 18.2454 12.5696 18.0144 13.3585 18.1168L15.4281 13.3885C15.3365 13.316 15.243 13.2476 15.1598 13.1613C14.1313 12.0968 14.1606 10.3743 15.2251 9.34572C15.7574 8.83139 16.4529 8.58207 17.1443 8.59487L17.1443 8.5947ZM31.9226 28.2632C31.346 29.0285 30.7037 29.7588 29.9935 30.445C29.2819 31.1326 28.5272 31.7494 27.7408 32.3003L37.2273 42.1175C38.3376 43.2667 40.1889 43.2974 41.3381 42.187C42.4874 41.0766 42.518 39.2267 41.4077 38.0776L31.9226 28.2632Z" fill="#8356E7"/>
</svg>

<svg width="43" height="43" viewBox="0 0 43 43" fill="none" xmlns="http://www.w3.org/2000/svg"><path d="M17.393.003A17.05 17.05 0 005.215 4.799c-6.787 6.558-6.974 17.397-.416 24.184 6.558 6.787 17.397 6.974 24.184.416 6.787-6.558 6.974-17.397.416-24.184A17.05 17.05 0 0017.393.003zm-.046 2.648c3.7.064 7.375 1.537 10.145 4.405 5.542 5.735 5.39 14.899-.346 20.44-5.736 5.542-14.903 5.386-20.445-.35s-5.38-14.9.355-20.442A14.408 14.408 0 0117.347 2.65zm-.025 1.445A12.955 12.955 0 008.067 7.75c-5.171 4.996-5.317 13.215-.321 18.385 4.996 5.171 13.219 5.313 18.39.317 5.17-4.996 5.308-13.215.312-18.385a12.96 12.96 0 00-9.126-3.97zm-.178 4.499a2.698 2.698 0 011.893.82 2.7 2.7 0 01.506 2.99l3.076 2.837a2.704 2.704 0 012.301-.237l1.293-1.908 1.203.817-1.305 1.929c.868 1.07.802 2.657-.206 3.63a2.706 2.706 0 01-3.81-.069c-.816-.843-.956-2.09-.454-3.086l-3.039-2.803a2.696 2.696 0 01-1.831.431l-2.077 4.743c.084.068.172.13.249.21a2.711 2.711 0 01-.066 3.816 2.706 2.706 0 01-3.811-.07 2.679 2.679 0 01-.723-2.18l-2.72-1.208.591-1.325 2.679 1.188c.075-.096.148-.196.238-.284a2.69 2.69 0 012.227-.72l2.07-4.727c-.092-.073-.185-.141-.268-.228a2.711 2.711 0 01.065-3.815 2.682 2.682 0 011.92-.751zm14.779 19.668A18.569 18.569 0 0127.74 32.3l9.486 9.818a2.917 2.917 0 004.111.069 2.915 2.915 0 00.07-4.11l-9.485-9.814z" fill="#8356E7"/></svg>
